X:4
T:Springlek efter Perbj\"ors Erik Persson
R:polska K1
A:Lima, Dalarna
Z:hn-k1-4
M:3/4
K:D
A|Sd>c A>B A2|G2 FD/F/ (3ECE|D2 ge fa|S(3gfg a>g fd|
ec AB A2|G2 FD/F/ (3ECE|D2 ge fd|1 S(3cBc d3:|2 S(3cBc d4||
Ac de fa|S(3gfg a>g fe|dc de fa|S(3gfg a3A|
c2 de fa|S(3gfg a>g fd|ec Ac BG|AF DF EC|SD2 D3A|
c2 de fa|S(3gfg a>g fe|dc de fa|S(3gfg a3A|
c2 de fa|S(3gfg a>g fd|ec Ac BG|AF DF EC|SD2 D3||

